packages/calcite-ui-icons/icons/mosaic-method-blend-32.svg

<?xml version="1.0" encoding="UTF-8"?><svg id="icons" xmlns="http://www.w3.org/2000/svg" viewBox="0 0 32 32"><defs><style>.cls-1{fill:none;}.cls-2{opacity:.5;}.cls-3{opacity:.25;}</style></defs><path d="M19,19v12h12v-12h-12ZM30,30h-10v-10h10v10ZM12,16h2v1H1V6h4v1h-3v4h3v1h-3v4h4v-3h1v3h4v-3h1v3ZM16,14v-1h1v1h-1ZM22,1H6v11h16V1ZM11,11h-4v-4h4v4ZM11,6h-4V2h4v4ZM16,11h-4v-4h4v4ZM16,6h-4V2h4v4ZM21,11h-4v-4h4v4ZM21,6h-4V2h4v4ZM16,26h2v1h-3v-12h12v3h-1v-2h-10v10Z"/><path class="cls-3" d="M7,13h4v3h-4v-3ZM7,6h4V2h-4v4ZM2,11h3v-4h-3v4ZM12,11h4v-4h-4v4ZM20,20v6h6v-6h-6Z"/><path class="cls-2" d="M27,20v7h-7v-1h6v-6h1ZM16,2h-4v4h4V2ZM21,7h-4v4h4v-4ZM7,11h4v-4h-4v4ZM26,16h-10v10h2v-8h8v-2ZM16,13h-4v3h2v-1c0-.55273.44727-1,1-1h1v-1Z"/><rect class="cls-1" width="32" height="32"/></svg>

<svg xmlns="http://www.w3.org/2000/svg" viewBox="0 0 32 32"><path d="M19 19v12h12V19H19zm11 11H20V20h10v10zM12 16h2v1H1V6h4v1H2v4h3v1H2v4h4v-3h1v3h4v-3h1v3zm4-2v-1h1v1h-1zm6-13H6v11h16V1zM11 11H7V7h4v4zm0-5H7V2h4v4zm5 5h-4V7h4v4zm0-5h-4V2h4v4zm5 5h-4V7h4v4zm0-5h-4V2h4v4zm-5 20h2v1h-3V15h12v3h-1v-2H16v10z"/><path d="M7 13h4v3H7v-3zm0-7h4V2H7v4zm-5 5h3V7H2v4zm10 0h4V7h-4v4zm8 9v6h6v-6h-6z" opacity=".25"/><path d="M27 20v7h-7v-1h6v-6h1z" fill="#595959"/><path d="M26 16v2h-8v8h-2V16h10zm-5-9h-4v4h4V7zm-5-5h-4v4h4V2zm-9 9h4V7H7v4zm9 2h-4v3h2v-1a1 1 0 0 1 1-1h1v-1z" opacity=".5"/><path fill="none" d="M0 0h32v32H0z"/></svg>
